!!!COM: Bach, Johann Sebastian
!!!CDT: 1685/3//-1750/7/28/
!!!OTL@@DE: Ach wie fluechtig, ach wie nichtig
!!!AGN: 4-Part Chorale
!!!OPR: Cantata, BWV 26
!!!SCT: BH 048
!!!SCT: BWV 26
**harm	**root	**kern	**kern	**kern	**kern
!	!	!bass	!tenor	!alto	!soprno
*	*Iorgan	*Iorgan	*Iorgan	*Iorgan	*Iorgan
*	*	*clefF4	*clefF4	*clefG2	*clefG2
*M4/4	*M4/4	*M4/4	*M4/4	*M4/4	*M4/4
*met(c)	*met(c)	*met(c)	*met(c)	*met(c)	*met(c)
*MM60	*MM60	*MM60	*MM60	*MM60	*MM60
*k[f#c#g#d#a#e#]	*k[f#c#g#d#a#e#]	*k[f#c#g#d#a#e#]	*k[f#c#g#d#a#e#]	*k[f#c#g#d#a#e#]	*k[f#c#g#d#a#e#]
*d#:	*d#:	*d#:	*d#:	*d#:	*d#:
=1-	=1-	=1-	=1-	=1-	=1-
i	4AA	4d#	4f#	4a#	4dd#
Vb	4EE	4c##	4e#	4a#	4ee#
i	4AA	4d#	4d#	4a#	4ff#
i;	4AA;	4D#;	4d#;	4a#;	4ff#;
=2	=2	=2	=2	=2	=2
i	4AA	4d#	4d#	4a#	4ff#
V/III	4GG	4c#	4e#	4cc#	4gg#
I/III	4CC	4f#	4f#	4cc#	4aa#
I/III;	4CC;	4F#;	4f#;	4cc#;	4aa#;
=3	=3	=3	=3	=3	=3
I/III	4CC	8f#	8f#	4cc#	4aa#
.	.	8e#	8g#	.	.
i	4AA	8d#	8f#	[4ff#	4aa#
.	.	8c#	8e#	.	.
V7b/-VII	8DD	8B#	8d#	8ff#]	4gg#
viio	8GG#	8c##	8e#	4ee#	.
i	4AA	4d#	8f#	.	4ff#
.	.	.	8a#	8dd#	.
=4	=4	=4	=4	=4	=4
iv7	4DD	4G#	4b	4dd#	4.ee#
V	4EE	4A#	8a#	4cc##	.
.	.	.	8g#	.	8dd#
I;	2AA;	2D#;	2f##;	2a#;	2dd#;
=5	=5	=5	=5	=5	=5
I	4AA	8d#	8f##	4dd#	4aa#
.	.	8e#	8g#	.	.
Ib	4AA	8f##	8a#	4dd#	4aa#
.	.	8d#	8f##	.	.
iv	4DD	8g#	4g#	4dd#	4bb
.	.	8f#	.	.	.
-II	4BB-	8e	4g#	4ee	4bb
.	.	8d#	.	.	.
!!linebreak: 2
=6	=6	=6	=6	=6	=6
viiD7/VI	4EE	8c#	4g#	4ee	4aa#
.	.	8A#	.	.	.
V/IV	4AA	4d#	4f##	8dd#	4aa#
.	.	.	.	8cc#	.
IV	4DD	4G#	4g#	8cc#	4aa#
.	.	.	.	8a#	.
IV;	4DD;	4G#;	4d#;	4b#;	4gg#;
*F#:	*F#:	*F#:	*F#:	*F#:	*F#:
=7	=7	=7	=7	=7	=7
V	4GG	8c#	8e#	4cc#	4gg#
.	.	8d#	8f#	.	.
Vb	4GG	8e#	8g#	4cc#	4gg#
.	.	8c#	8e#	.	.
I	4CC	8f#	4f#	4cc#	4aa#
.	.	8e#	.	.	.
vi	4AA	8d#	4f#	4dd#	4aa#
.	.	8c#	.	.	.
=8	=8	=8	=8	=8	=8
ii7b	4DD	8B	4f#	4dd#	4gg#
.	.	8G#	.	.	.
V	4GG	4c#	4e#	8cc#	4gg#
.	.	.	.	8b	.
I	4CC	4F#	4f#	8b	4ff#
.	.	.	.	8g#	.
I;	4CC;	4F#;	4c#;	4a#;	4ff#;
*d#:	*d#:	*d#:	*d#:	*d#:	*d#:
=9	=9	=9	=9	=9	=9
VI	4FF	4B	4d#	4b	4ff#
iv	4DD	8A#	4d#	4b	4gg#
.	.	8G#	.	.	.
Vb	4EE	8c##	4e#	4a#	4aa#
.	.	8A#	.	.	.
I	4AA	4d#	4d#	4a#	8gg#
.	.	.	.	.	8ff#
=10	=10	=10	=10	=10	=10
V7b/V	4BB	4G##	4d#	4b#	4ee#
V	4EE	4A#	4c##	8a#	4ee#
.	.	.	.	8g#	.
I	4AA	4d#	4d#	8g#	4dd#
.	.	.	.	8e#	.
I;	4AA;	4D#;	4A#;	4f##;	4dd#;
====	====	====	====	====	====
*-	*-	*-	*-	*-	*-
!!chor2scor: -l 2 -s 0.6 -o %b.pmx
!!!YEC: Copyright 1994, David Huron
!!!YEC: Changes/Additions 2001 by Craig Stuart Sapp
!!!YEN: United States of America
!!!SMA: 371 Bach Chorales, edited by Ludwig Erk, C.F. Peters
!!!PDT: 1850, 1865
